X:351
T:Jockey to the Fair - Ducklington
M:6/8
L:1/8
K:G
D | G2 A B2 c | d2 g d2 c | BdB GAB | c2 B A2 D |
G2 A B2 c | d2 gd2 g | fed Ad^c | d3 d2 ||
d | g2 g d2 d | cdc B2 d | g2 g d2 d | cdc B2 d |
e2 f gfe | d2 cBcd | edc B2 A | GBG E2 F | G2 G GBd |
e3 d2 g | edc B2 A | GBG E2 F | G2 g BcA | G3 G2 ||
D | G3 A3 | B3 c3 | d3 g3 | d3 c3 | BdB GFG | AcB A2 D |
G3 A3 | B3 c3 | d3 g3 | d3 g3 | fed Ad^c | d3 d2 ||
